; HEADER_BLOCK_START
; generated by OrcaSlicer 2.3.1 on 2026-02-12 at 16:38:41
; total layer number: 249
; filament_density: 1.3
; filament_diameter: 1.75
; max_z_height: 29.96
; HEADER_BLOCK_END

; external perimeters extrusion width = 0.42mm
; perimeters extrusion width = 0.45mm
; infill extrusion width = 0.45mm
; solid infill extrusion width = 0.42mm
; top infill extrusion width = 0.42mm
; first layer extrusion width = 0.46mm

; EXECUTABLE_BLOCK_START
M201 X2500 Y2500 Z500 E5000
M203 X250 Y250 Z5 E40
M204 P2500 R500 T2500 ; sets acceleration (P, T) and retract acceleration (R), mm/sec^2
M205 X10.00 Y10.00 Z0.40 E5.00 ; sets the jerk limits, mm/sec
;TYPE:Custom
M220 S100 ;Reset Feedrate 
M221 S100 ;Reset Flowrate 
 
M104 S220 ;Set final nozzle temp 
M190 S55 ;Set and wait for bed temp to stabilize 
G28 ;Home 
G92 E0 ;Reset Extruder 
G1 Z2.0 F3000 ;Move Z Axis up 
G1 X-2.1 Y20 Z0.28 F5000.0 ;Move to start position 
M109 S220 ;Wait for nozzle temp to stabilize 
G1 X-2.1 Y145.0 Z0.28 F1500.0 E15 ;Draw the first line 
G1 X-2.4 Y145.0 Z0.28 F5000.0 ;Move to side a little 
G1 X-2.4 Y20 Z0.28 F1500.0 E30 ;Draw the second line 
G92 E0  ;Reset Extruder 
G1 E-1.0000 F1800 ;Retract a bit 
G1 Z2.0 F3000 ;Move Z Axis up 
G1 E0.0000 F1800
G90
G21
M83 ; use relative distances for extrusion
; Filament gcode
M106 S0

;Start support pin brims 
;Brim 0

G1 E-0.5 Z1.2;Zhop and retract
G0 X129.797 Y90.71;
G1  Z0.2 E0.50; undo zhop and reprime nozzle
G1 X139.797 E0.6652027009228607 F500
G1 Y100.71 E0.6652027009228607
G1 X129.797 E0.6652027009228607
G1 Y90.71 E0.6652027009228607

G1 E-0.5 Z1.2;Zhop and retract
G0 X130.25154545454546 Y91.16454545454545;
G1  Z0.2 E0.50; undo zhop and reprime nozzle
G1 X139.34245454545453 E0.6047297281116917 F500
G1 Y100.25545454545454 E0.6047297281116917
G1 X130.25154545454546 E0.6047297281116917
G1 Y91.16454545454545 E0.6047297281116917

G1 E-0.5 Z1.2;Zhop and retract
G0 X130.7060909090909 Y91.6190909090909;
G1  Z0.2 E0.50; undo zhop and reprime nozzle
G1 X138.8879090909091 E0.5442567553005224 F500
G1 Y99.80090909090909 E0.5442567553005224
G1 X130.7060909090909 E0.5442567553005224
G1 Y91.6190909090909 E0.5442567553005224

G1 E-0.5 Z1.2;Zhop and retract
G0 X131.16063636363637 Y92.07363636363635;
G1  Z0.2 E0.50; undo zhop and reprime nozzle
G1 X138.43336363636362 E0.48378378248935333 F500
G1 Y99.34636363636363 E0.48378378248935333
G1 X131.16063636363637 E0.48378378248935333
G1 Y92.07363636363635 E0.48378378248935333

G1 E-0.5 Z1.2;Zhop and retract
G0 X131.6151818181818 Y92.5281818181818;
G1  Z0.2 E0.50; undo zhop and reprime nozzle
G1 X137.97881818181818 E0.4233108096781841 F500
G1 Y98.89181818181818 E0.4233108096781841
G1 X131.6151818181818 E0.4233108096781841
G1 Y92.5281818181818 E0.4233108096781841

G1 E-0.5 Z1.2;Zhop and retract
G0 X132.06972727272728 Y92.98272727272726;
G1  Z0.2 E0.50; undo zhop and reprime nozzle
G1 X137.52427272727272 E0.362837836867015 F500
G1 Y98.43727272727273 E0.362837836867015
G1 X132.06972727272728 E0.362837836867015
G1 Y92.98272727272726 E0.362837836867015

G1 E-0.5 Z1.2;Zhop and retract
G0 X132.52427272727272 Y93.43727272727273;
G1  Z0.2 E0.50; undo zhop and reprime nozzle
G1 X137.06972727272728 E0.30236486405584584 F500
G1 Y97.98272727272726 E0.30236486405584584
G1 X132.52427272727272 E0.30236486405584584
G1 Y93.43727272727273 E0.30236486405584584

G1 E-0.5 Z1.2;Zhop and retract
G0 X132.97881818181818 Y93.89181818181818;
G1  Z0.2 E0.50; undo zhop and reprime nozzle
G1 X136.6151818181818 E0.24189189124467667 F500
G1 Y97.5281818181818 E0.24189189124467667
G1 X132.97881818181818 E0.24189189124467667
G1 Y93.89181818181818 E0.24189189124467667

G1 E-0.5 Z1.2;Zhop and retract
G0 X133.43336363636362 Y94.34636363636363;
G1  Z0.2 E0.50; undo zhop and reprime nozzle
G1 X136.16063636363637 E0.1814189184335075 F500
G1 Y97.07363636363635 E0.1814189184335075
G1 X133.43336363636362 E0.1814189184335075
G1 Y94.34636363636363 E0.1814189184335075

G1 E-0.5 Z1.2;Zhop and retract
G0 X133.8879090909091 Y94.80090909090909;
G1  Z0.2 E0.50; undo zhop and reprime nozzle
G1 X135.7060909090909 E0.12094594562233833 F500
G1 Y96.6190909090909 E0.12094594562233833
G1 X133.8879090909091 E0.12094594562233833
G1 Y94.80090909090909 E0.12094594562233833

G1 E-0.5 Z1.2;Zhop and retract
G0 X134.34245454545453 Y95.25545454545454;
G1  Z0.2 E0.50; undo zhop and reprime nozzle
G1 X135.25154545454546 E0.06047297281116922 F500
G1 Y96.16454545454545 E0.06047297281116922
G1 X134.34245454545453 E0.06047297281116922
G1 Y95.25545454545454 E0.06047297281116922

G1 E-0.5 Z1.2;Zhop and retract
G0 X134.797 Y95.71;
G1  Z0.2 E0.50; undo zhop and reprime nozzle
G1 X134.797 E0.0 F500
G1 Y95.71 E0.0
G1 X134.797 E0.0
G1 Y95.71 E0.0

;Brim 1

G1 E-0.5 Z1.2;Zhop and retract
G0 X134.773 Y105.638;
G1  Z0.2 E0.50; undo zhop and reprime nozzle
G1 X144.773 E0.6652027009228607 F500
G1 Y115.638 E0.6652027009228607
G1 X134.773 E0.6652027009228607
G1 Y105.638 E0.6652027009228607

G1 E-0.5 Z1.2;Zhop and retract
G0 X135.22754545454546 Y106.09254545454546;
G1  Z0.2 E0.50; undo zhop and reprime nozzle
G1 X144.31845454545453 E0.6047297281116917 F500
G1 Y115.18345454545455 E0.6047297281116917
G1 X135.22754545454546 E0.6047297281116917
G1 Y106.09254545454546 E0.6047297281116917

G1 E-0.5 Z1.2;Zhop and retract
G0 X135.6820909090909 Y106.54709090909091;
G1  Z0.2 E0.50; undo zhop and reprime nozzle
G1 X143.8639090909091 E0.5442567553005224 F500
G1 Y114.7289090909091 E0.5442567553005224
G1 X135.6820909090909 E0.5442567553005224
G1 Y106.54709090909091 E0.5442567553005224

G1 E-0.5 Z1.2;Zhop and retract
G0 X136.13663636363637 Y107.00163636363636;
G1  Z0.2 E0.50; undo zhop and reprime nozzle
G1 X143.40936363636362 E0.48378378248935333 F500
G1 Y114.27436363636365 E0.48378378248935333
G1 X136.13663636363637 E0.48378378248935333
G1 Y107.00163636363636 E0.48378378248935333

G1 E-0.5 Z1.2;Zhop and retract
G0 X136.5911818181818 Y107.45618181818182;
G1  Z0.2 E0.50; undo zhop and reprime nozzle
G1 X142.95481818181818 E0.4233108096781841 F500
G1 Y113.81981818181819 E0.4233108096781841
G1 X136.5911818181818 E0.4233108096781841
G1 Y107.45618181818182 E0.4233108096781841

G1 E-0.5 Z1.2;Zhop and retract
G0 X137.04572727272728 Y107.91072727272727;
G1  Z0.2 E0.50; undo zhop and reprime nozzle
G1 X142.50027272727272 E0.362837836867015 F500
G1 Y113.36527272727274 E0.362837836867015
G1 X137.04572727272728 E0.362837836867015
G1 Y107.91072727272727 E0.362837836867015

G1 E-0.5 Z1.2;Zhop and retract
G0 X137.50027272727272 Y108.36527272727274;
G1  Z0.2 E0.50; undo zhop and reprime nozzle
G1 X142.04572727272728 E0.30236486405584584 F500
G1 Y112.91072727272727 E0.30236486405584584
G1 X137.50027272727272 E0.30236486405584584
G1 Y108.36527272727274 E0.30236486405584584

G1 E-0.5 Z1.2;Zhop and retract
G0 X137.95481818181818 Y108.81981818181819;
G1  Z0.2 E0.50; undo zhop and reprime nozzle
G1 X141.5911818181818 E0.24189189124467667 F500
G1 Y112.45618181818182 E0.24189189124467667
G1 X137.95481818181818 E0.24189189124467667
G1 Y108.81981818181819 E0.24189189124467667

G1 E-0.5 Z1.2;Zhop and retract
G0 X138.40936363636362 Y109.27436363636365;
G1  Z0.2 E0.50; undo zhop and reprime nozzle
G1 X141.13663636363637 E0.1814189184335075 F500
G1 Y112.00163636363636 E0.1814189184335075
G1 X138.40936363636362 E0.1814189184335075
G1 Y109.27436363636365 E0.1814189184335075

G1 E-0.5 Z1.2;Zhop and retract
G0 X138.8639090909091 Y109.7289090909091;
G1  Z0.2 E0.50; undo zhop and reprime nozzle
G1 X140.6820909090909 E0.12094594562233833 F500
G1 Y111.54709090909091 E0.12094594562233833
G1 X138.8639090909091 E0.12094594562233833
G1 Y109.7289090909091 E0.12094594562233833

G1 E-0.5 Z1.2;Zhop and retract
G0 X139.31845454545453 Y110.18345454545455;
G1  Z0.2 E0.50; undo zhop and reprime nozzle
G1 X140.22754545454546 E0.06047297281116922 F500
G1 Y111.09254545454546 E0.06047297281116922
G1 X139.31845454545453 E0.06047297281116922
G1 Y110.18345454545455 E0.06047297281116922

G1 E-0.5 Z1.2;Zhop and retract
G0 X139.773 Y110.638;
G1  Z0.2 E0.50; undo zhop and reprime nozzle
G1 X139.773 E0.0 F500
G1 Y110.638 E0.0
G1 X139.773 E0.0
G1 Y110.638 E0.0

;Brim 2

G1 E-0.5 Z1.2;Zhop and retract
G0 X95.157 Y130.513;
G1  Z0.2 E0.50; undo zhop and reprime nozzle
G1 X105.157 E0.6652027009228607 F500
G1 Y140.513 E0.6652027009228607
G1 X95.157 E0.6652027009228607
G1 Y130.513 E0.6652027009228607

G1 E-0.5 Z1.2;Zhop and retract
G0 X95.61154545454545 Y130.96754545454547;
G1  Z0.2 E0.50; undo zhop and reprime nozzle
G1 X104.70245454545454 E0.6047297281116917 F500
G1 Y140.05845454545454 E0.6047297281116917
G1 X95.61154545454545 E0.6047297281116917
G1 Y130.96754545454547 E0.6047297281116917

G1 E-0.5 Z1.2;Zhop and retract
G0 X96.0660909090909 Y131.4220909090909;
G1  Z0.2 E0.50; undo zhop and reprime nozzle
G1 X104.24790909090909 E0.5442567553005224 F500
G1 Y139.6039090909091 E0.5442567553005224
G1 X96.0660909090909 E0.5442567553005224
G1 Y131.4220909090909 E0.5442567553005224

G1 E-0.5 Z1.2;Zhop and retract
G0 X96.52063636363636 Y131.87663636363638;
G1  Z0.2 E0.50; undo zhop and reprime nozzle
G1 X103.79336363636364 E0.48378378248935333 F500
G1 Y139.14936363636363 E0.48378378248935333
G1 X96.52063636363636 E0.48378378248935333
G1 Y131.87663636363638 E0.48378378248935333

G1 E-0.5 Z1.2;Zhop and retract
G0 X96.97518181818181 Y132.33118181818182;
G1  Z0.2 E0.50; undo zhop and reprime nozzle
G1 X103.33881818181818 E0.4233108096781841 F500
G1 Y138.6948181818182 E0.4233108096781841
G1 X96.97518181818181 E0.4233108096781841
G1 Y132.33118181818182 E0.4233108096781841

G1 E-0.5 Z1.2;Zhop and retract
G0 X97.42972727272726 Y132.78572727272729;
G1  Z0.2 E0.50; undo zhop and reprime nozzle
G1 X102.88427272727273 E0.362837836867015 F500
G1 Y138.24027272727272 E0.362837836867015
G1 X97.42972727272726 E0.362837836867015
G1 Y132.78572727272729 E0.362837836867015

G1 E-0.5 Z1.2;Zhop and retract
G0 X97.88427272727273 Y133.24027272727272;
G1  Z0.2 E0.50; undo zhop and reprime nozzle
G1 X102.42972727272726 E0.30236486405584584 F500
G1 Y137.78572727272729 E0.30236486405584584
G1 X97.88427272727273 E0.30236486405584584
G1 Y133.24027272727272 E0.30236486405584584

G1 E-0.5 Z1.2;Zhop and retract
G0 X98.33881818181818 Y133.6948181818182;
G1  Z0.2 E0.50; undo zhop and reprime nozzle
G1 X101.97518181818181 E0.24189189124467667 F500
G1 Y137.33118181818182 E0.24189189124467667
G1 X98.33881818181818 E0.24189189124467667
G1 Y133.6948181818182 E0.24189189124467667

G1 E-0.5 Z1.2;Zhop and retract
G0 X98.79336363636364 Y134.14936363636363;
G1  Z0.2 E0.50; undo zhop and reprime nozzle
G1 X101.52063636363636 E0.1814189184335075 F500
G1 Y136.87663636363638 E0.1814189184335075
G1 X98.79336363636364 E0.1814189184335075
G1 Y134.14936363636363 E0.1814189184335075

G1 E-0.5 Z1.2;Zhop and retract
G0 X99.24790909090909 Y134.6039090909091;
G1  Z0.2 E0.50; undo zhop and reprime nozzle
G1 X101.0660909090909 E0.12094594562233833 F500
G1 Y136.4220909090909 E0.12094594562233833
G1 X99.24790909090909 E0.12094594562233833
G1 Y134.6039090909091 E0.12094594562233833

G1 E-0.5 Z1.2;Zhop and retract
G0 X99.70245454545454 Y135.05845454545454;
G1  Z0.2 E0.50; undo zhop and reprime nozzle
G1 X100.61154545454545 E0.06047297281116922 F500
G1 Y135.96754545454547 E0.06047297281116922
G1 X99.70245454545454 E0.06047297281116922
G1 Y135.05845454545454 E0.06047297281116922

G1 E-0.5 Z1.2;Zhop and retract
G0 X100.157 Y135.513;
G1  Z0.2 E0.50; undo zhop and reprime nozzle
G1 X100.157 E0.0 F500
G1 Y135.513 E0.0
G1 X100.157 E0.0
G1 Y135.513 E0.0

;Brim 3

G1 E-0.5 Z1.2;Zhop and retract
G0 X75.248 Y105.627;
G1  Z0.2 E0.50; undo zhop and reprime nozzle
G1 X85.248 E0.6652027009228607 F500
G1 Y115.627 E0.6652027009228607
G1 X75.248 E0.6652027009228607
G1 Y105.627 E0.6652027009228607

G1 E-0.5 Z1.2;Zhop and retract
G0 X75.70254545454546 Y106.08154545454545;
G1  Z0.2 E0.50; undo zhop and reprime nozzle
G1 X84.79345454545455 E0.6047297281116917 F500
G1 Y115.17245454545454 E0.6047297281116917
G1 X75.70254545454546 E0.6047297281116917
G1 Y106.08154545454545 E0.6047297281116917

G1 E-0.5 Z1.2;Zhop and retract
G0 X76.15709090909091 Y106.5360909090909;
G1  Z0.2 E0.50; undo zhop and reprime nozzle
G1 X84.3389090909091 E0.5442567553005224 F500
G1 Y114.71790909090909 E0.5442567553005224
G1 X76.15709090909091 E0.5442567553005224
G1 Y106.5360909090909 E0.5442567553005224

G1 E-0.5 Z1.2;Zhop and retract
G0 X76.61163636363636 Y106.99063636363636;
G1  Z0.2 E0.50; undo zhop and reprime nozzle
G1 X83.88436363636364 E0.48378378248935333 F500
G1 Y114.26336363636364 E0.48378378248935333
G1 X76.61163636363636 E0.48378378248935333
G1 Y106.99063636363636 E0.48378378248935333

G1 E-0.5 Z1.2;Zhop and retract
G0 X77.06618181818182 Y107.44518181818181;
G1  Z0.2 E0.50; undo zhop and reprime nozzle
G1 X83.42981818181819 E0.4233108096781841 F500
G1 Y113.80881818181818 E0.4233108096781841
G1 X77.06618181818182 E0.4233108096781841
G1 Y107.44518181818181 E0.4233108096781841

G1 E-0.5 Z1.2;Zhop and retract
G0 X77.52072727272727 Y107.89972727272726;
G1  Z0.2 E0.50; undo zhop and reprime nozzle
G1 X82.97527272727274 E0.362837836867015 F500
G1 Y113.35427272727273 E0.362837836867015
G1 X77.52072727272727 E0.362837836867015
G1 Y107.89972727272726 E0.362837836867015

G1 E-0.5 Z1.2;Zhop and retract
G0 X77.97527272727274 Y108.35427272727273;
G1  Z0.2 E0.50; undo zhop and reprime nozzle
G1 X82.52072727272727 E0.30236486405584584 F500
G1 Y112.89972727272726 E0.30236486405584584
G1 X77.97527272727274 E0.30236486405584584
G1 Y108.35427272727273 E0.30236486405584584

G1 E-0.5 Z1.2;Zhop and retract
G0 X78.42981818181819 Y108.80881818181818;
G1  Z0.2 E0.50; undo zhop and reprime nozzle
G1 X82.06618181818182 E0.24189189124467667 F500
G1 Y112.44518181818181 E0.24189189124467667
G1 X78.42981818181819 E0.24189189124467667
G1 Y108.80881818181818 E0.24189189124467667

G1 E-0.5 Z1.2;Zhop and retract
G0 X78.88436363636364 Y109.26336363636364;
G1  Z0.2 E0.50; undo zhop and reprime nozzle
G1 X81.61163636363636 E0.1814189184335075 F500
G1 Y111.99063636363636 E0.1814189184335075
G1 X78.88436363636364 E0.1814189184335075
G1 Y109.26336363636364 E0.1814189184335075

G1 E-0.5 Z1.2;Zhop and retract
G0 X79.3389090909091 Y109.71790909090909;
G1  Z0.2 E0.50; undo zhop and reprime nozzle
G1 X81.15709090909091 E0.12094594562233833 F500
G1 Y111.5360909090909 E0.12094594562233833
G1 X79.3389090909091 E0.12094594562233833
G1 Y109.71790909090909 E0.12094594562233833

G1 E-0.5 Z1.2;Zhop and retract
G0 X79.79345454545455 Y110.17245454545454;
G1  Z0.2 E0.50; undo zhop and reprime nozzle
G1 X80.70254545454546 E0.06047297281116922 F500
G1 Y111.08154545454545 E0.06047297281116922
G1 X79.79345454545455 E0.06047297281116922
G1 Y110.17245454545454 E0.06047297281116922

G1 E-0.5 Z1.2;Zhop and retract
G0 X80.248 Y110.627;
G1  Z0.2 E0.50; undo zhop and reprime nozzle
G1 X80.248 E0.0 F500
G1 Y110.627 E0.0
G1 X80.248 E0.0
G1 Y110.627 E0.0

;Brim 4

G1 E-0.5 Z1.2;Zhop and retract
G0 X85.136 Y85.851;
G1  Z0.2 E0.50; undo zhop and reprime nozzle
G1 X95.136 E0.6652027009228607 F500
G1 Y95.851 E0.6652027009228607
G1 X85.136 E0.6652027009228607
G1 Y85.851 E0.6652027009228607

G1 E-0.5 Z1.2;Zhop and retract
G0 X85.59054545454545 Y86.30554545454545;
G1  Z0.2 E0.50; undo zhop and reprime nozzle
G1 X94.68145454545454 E0.6047297281116917 F500
G1 Y95.39645454545455 E0.6047297281116917
G1 X85.59054545454545 E0.6047297281116917
G1 Y86.30554545454545 E0.6047297281116917

G1 E-0.5 Z1.2;Zhop and retract
G0 X86.0450909090909 Y86.7600909090909;
G1  Z0.2 E0.50; undo zhop and reprime nozzle
G1 X94.22690909090909 E0.5442567553005224 F500
