; HEADER_BLOCK_START
; generated by OrcaSlicer 2.3.1 on 2026-02-12 at 16:38:41
; total layer number: 249
; filament_density: 1.3
; filament_diameter: 1.75
; max_z_height: 29.96
; HEADER_BLOCK_END

; external perimeters extrusion width = 0.42mm
; perimeters extrusion width = 0.45mm
; infill extrusion width = 0.45mm
; solid infill extrusion width = 0.42mm
; top infill extrusion width = 0.42mm
; first layer extrusion width = 0.46mm

; EXECUTABLE_BLOCK_START
M201 X2500 Y2500 Z500 E5000
M203 X250 Y250 Z5 E40
M204 P2500 R500 T2500 ; sets acceleration (P, T) and retract acceleration (R), mm/sec^2
M205 X10.00 Y10.00 Z0.40 E5.00 ; sets the jerk limits, mm/sec
;TYPE:Custom
M220 S100 ;Reset Feedrate 
M221 S100 ;Reset Flowrate 
 
M104 S220 ;Set final nozzle temp 
M190 S55 ;Set and wait for bed temp to stabilize 
G28 ;Home 
G92 E0 ;Reset Extruder 
G1 Z2.0 F3000 ;Move Z Axis up 
G1 X-2.1 Y20 Z0.28 F5000.0 ;Move to start position 
M109 S220 ;Wait for nozzle temp to stabilize 
G1 X-2.1 Y145.0 Z0.28 F1500.0 E15 ;Draw the first line 
G1 X-2.4 Y145.0 Z0.28 F5000.0 ;Move to side a little 
G1 X-2.4 Y20 Z0.28 F1500.0 E30 ;Draw the second line 
G92 E0  ;Reset Extruder 
G1 E-1.0000 F1800 ;Retract a bit 
G1 Z2.0 F3000 ;Move Z Axis up 
G1 E0.0000 F1800
G90
G21
M83 ; use relative distances for extrusion
; Filament gcode
M106 S0
;LAYER_CHANGE
;Z:0.2
;HEIGHT:0.2
;BEFORE_LAYER_CHANGE
;0.2
G92 E0

G1 E-1.2 F2400
;_SET_FAN_SPEED_CHANGING_LAYER
M204 P500
; printing object testpiece2.STL id:15 copy 0
M204 T500
G1 X103.134 Y113.946 F9000
G1 Z.6
G1 Z.2
G1 E1.2 F1800
;TYPE:Brim
;WIDTH:0.46
G1 X103.86 Y113.356 E.03083
G1 X104.657 Y112.838 E.03131
G1 X105.577 Y112.363 E.03412
G1 X106.45 Y112.027 E.03081
G1 X107.354 Y111.785 E.03083
G1 X108.278 Y111.637 E.03083
G1 X109.232 Y111.587 E.03148
G1 X120.711 Y111.587 E.37818
G1 X121.708 Y111.636 E.03291
G1 X122.632 Y111.782 E.03082
G1 X123.536 Y112.023 E.03083
G1 X124.41 Y112.358 E.03083
G1 X125.257 Y112.788 E.03131
G1 X126.129 Y113.348 E.03412
G1 X126.856 Y113.936 E.03081
G1 X127.518 Y114.597 E.03083
G1 X128.108 Y115.324 E.03083
G1 X128.629 Y116.125 E.03148
G1 X134.397 Y126.115 E.38007
G1 X134.824 Y126.954 E.03101
G1 X135.16 Y127.828 E.03083
G1 X135.403 Y128.731 E.03083
G1 X135.55 Y129.655 E.03081
G1 X135.601 Y130.703 E.03459
G1 X135.552 Y131.638 E.03084
G1 X135.406 Y132.563 E.03083
G1 X135.164 Y133.467 E.03083
G1 X134.83 Y134.341 E.03083
G1 X134.397 Y135.192 E.03148
G1 X128.629 Y145.183 E.38007
G1 X128.116 Y145.972 E.03101
G1 X127.528 Y146.7 E.03083
G1 X126.866 Y147.362 E.03083
G1 X126.14 Y147.952 E.03083
G1 X125.343 Y148.47 E.03131
G1 X124.423 Y148.944 E.03412
G1 X123.55 Y149.28 E.03081
G1 X122.646 Y149.523 E.03083
G1 X121.722 Y149.67 E.03083
G1 X120.768 Y149.721 E.03148
G1 X109.232 Y149.721 E.38007
G1 X108.292 Y149.672 E.03101
G1 X107.368 Y149.526 E.03083
G1 X106.463 Y149.284 E.03083
G1 X105.59 Y148.95 E.03083
G1 X104.742 Y148.519 E.03131
G1 X103.871 Y147.959 E.03412
G1 X103.144 Y147.371 E.03081
G1 X102.482 Y146.71 E.03083
G1 X101.892 Y145.984 E.03083
G1 X101.371 Y145.183 E.03148
G1 X95.603 Y135.192 E.38007
G1 X95.176 Y134.353 E.03101
G1 X94.84 Y133.48 E.03083
G1 X94.597 Y132.576 E.03083
G1 X94.45 Y131.652 E.03083
G1 X94.399 Y130.703 E.03132
G1 X94.448 Y129.669 E.03412
G1 X94.594 Y128.745 E.03081
G1 X94.836 Y127.841 E.03083
G1 X95.17 Y126.967 E.03083
G1 X95.603 Y126.115 E.03148
G1 X101.371 Y116.125 E.38007
G1 X101.884 Y115.335 E.03101
G1 X102.472 Y114.608 E.03083
G1 X103.105 Y113.974 E.02951
G1 X103.401 Y114.269 F9000
G1 F1800
G1 X103.418 Y114.252 E.00082
G1 X104.111 Y113.69 E.02939
G1 X104.861 Y113.202 E.02948
G1 X105.742 Y112.747 E.03266
G1 X106.573 Y112.427 E.02935
G1 X107.448 Y112.192 E.02982
G1 X108.329 Y112.052 E.02939
G1 X109.246 Y112.004 E.03028
G1 X120.697 Y112.004 E.37726
G1 X121.659 Y112.051 E.03171
G1 X122.552 Y112.192 E.0298
G1 X123.401 Y112.419 E.02896
G1 X124.235 Y112.737 E.02938
G1 X125.044 Y113.148 E.02991
G1 X125.878 Y113.683 E.03266
G1 X126.581 Y114.251 E.02978
G1 X127.212 Y114.882 E.02939
G1 X127.766 Y115.565 E.02895
G1 X128.271 Y116.34 E.0305
G1 X134.028 Y126.312 E.37935
G1 X134.44 Y127.118 E.02983
G1 X134.76 Y127.951 E.02939
G1 X134.993 Y128.812 E.02939
G1 X135.134 Y129.691 E.02932
G1 X135.183 Y130.709 E.03358
G1 X135.137 Y131.588 E.02902
G1 X134.998 Y132.47 E.02939
G1 X134.769 Y133.332 E.02939
G1 X134.45 Y134.165 E.02938
G1 X134.028 Y134.996 E.03071
G1 X128.274 Y144.962 E.37913
G1 X127.782 Y145.721 E.02983
G1 X127.212 Y146.425 E.02982
G1 X126.591 Y147.047 E.02896
G1 X125.899 Y147.61 E.02938
G1 X125.128 Y148.111 E.03032
G1 X124.258 Y148.56 E.03224
G1 X123.427 Y148.881 E.02935
G1 X122.552 Y149.116 E.02982
G1 X121.671 Y149.255 E.02939
G1 X120.754 Y149.304 E.03028
G1 X109.239 Y149.304 E.37934
G1 X108.342 Y149.257 E.02961
G1 X107.461 Y149.118 E.02939
G1 X106.599 Y148.889 E.02939
G1 X105.765 Y148.571 E.02938
G1 X104.945 Y148.153 E.03032
G1 X104.11 Y147.617 E.0327
G1 X103.428 Y147.065 E.0289
G1 X102.797 Y146.435 E.02939
G1 X102.226 Y145.732 E.02982
G1 X101.725 Y144.962 E.03028
G1 X95.972 Y134.996 E.37913
G1 X95.56 Y134.189 E.02983
G1 X95.235 Y133.344 E.02982
G1 X95.005 Y132.483 E.02939
G1 X94.865 Y131.602 E.02939
G1 X94.817 Y130.696 E.02989
G1 X94.864 Y129.718 E.03224
G1 X95.002 Y128.838 E.02935
G1 X95.231 Y127.976 E.02939
G1 X95.549 Y127.143 E.02938
G1 X95.972 Y126.311 E.03071
G1 X101.725 Y116.346 E.37913
G1 X102.218 Y115.586 E.02983
G1 X102.788 Y114.883 E.02982
G1 X103.372 Y114.298 E.02725
G1 X103.668 Y114.592 F9000
G1 F1800
G1 X103.693 Y114.567 E.0012
G1 X104.352 Y114.032 E.02795
G1 X105.066 Y113.567 E.02808
G1 X105.907 Y113.131 E.0312
G1 X106.697 Y112.826 E.02788
G1 X107.528 Y112.602 E.02837
G1 X108.379 Y112.467 E.02837
G1 X109.261 Y112.421 E.02909
G1 X120.684 Y112.421 E.37635
G1 X121.609 Y112.466 E.03052
G1 X122.472 Y112.602 E.02878
G1 X123.279 Y112.818 E.02753
G1 X124.059 Y113.116 E.02752
G1 X124.831 Y113.507 E.0285
G1 X125.628 Y114.018 E.03119
G1 X126.307 Y114.567 E.02874
G1 X126.897 Y115.157 E.02753
G1 X127.424 Y115.805 E.02752
G1 X127.914 Y116.556 E.02951
G1 X133.66 Y126.508 E.37863
G1 X134.055 Y127.283 E.02865
G1 X134.361 Y128.074 E.02796
G1 X134.583 Y128.893 E.02796
G1 X134.717 Y129.727 E.02783
G1 X134.765 Y130.714 E.03256
G1 X134.72 Y131.551 E.02762
G1 X134.588 Y132.39 E.02796
G1 X134.373 Y133.197 E.02753
G1 X134.071 Y133.99 E.02794
G1 X133.66 Y134.8 E.02995
G1 X127.92 Y144.741 E.37819
G1 X127.447 Y145.47 E.02864
G1 X126.897 Y146.15 E.02881
G1 X126.306 Y146.741 E.02753
G1 X125.658 Y147.268 E.02751
G1 X124.912 Y147.753 E.02933
G1 X124.093 Y148.176 E.03038
G1 X123.291 Y148.485 E.02832
G1 X122.459 Y148.708 E.02837
G1 X121.621 Y148.84 E.02794
G1 X120.739 Y148.887 E.02909
G1 X109.247 Y148.886 E.37862
G1 X108.392 Y148.842 E.02822
G1 X107.553 Y148.711 E.02796
G1 X106.733 Y148.493 E.02796
G1 X105.941 Y148.191 E.02793
G1 X105.148 Y147.788 E.02932
G1 X104.35 Y147.274 E.03127
G1 X103.703 Y146.75 E.02743
G1 X103.111 Y146.16 E.02753
G1 X102.56 Y145.481 E.0288
G1 X102.079 Y144.741 E.02909
G1 X96.34 Y134.799 E.37819
G1 X95.945 Y134.025 E.02864
G1 X95.635 Y133.221 E.02838
G1 X95.412 Y132.389 E.02838
G1 X95.28 Y131.551 E.02795
G1 X95.235 Y130.688 E.02847
G1 X95.279 Y129.767 E.03038
G1 X95.409 Y128.931 E.02789
G1 X95.627 Y128.11 E.02796
G1 X95.929 Y127.318 E.02794
G1 X96.34 Y126.507 E.02995
G1 X102.08 Y116.566 E.37819
G1 X102.553 Y115.837 E.02864
G1 X103.094 Y115.167 E.02838
G1 X103.639 Y114.621 E.02544
G1 X103.935 Y114.915 F9000
G1 F1800
G1 X103.968 Y114.881 E.00157
G1 X104.593 Y114.374 E.02651
G1 X105.271 Y113.931 E.02669
G1 X106.073 Y113.515 E.02975
G1 X106.82 Y113.226 E.02642
G1 X107.609 Y113.012 E.02692
G1 X108.429 Y112.882 E.02736
G1 X109.275 Y112.838 E.0279
G1 X120.671 Y112.838 E.37545
G1 X121.56 Y112.881 E.02932
G1 X122.391 Y113.012 E.02775
G1 X123.144 Y113.214 E.02567
G1 X123.884 Y113.496 E.02609
G1 X124.618 Y113.867 E.0271
G1 X125.378 Y114.353 E.02972
G1 X126.032 Y114.882 E.0277
G1 X126.583 Y115.433 E.02567
G1 X127.083 Y116.047 E.02609
G1 X127.556 Y116.771 E.02852
G1 X133.292 Y126.704 E.3779
G1 X133.671 Y127.447 E.02747
G1 X133.962 Y128.198 E.02653
G1 X134.173 Y128.975 E.02652
G1 X134.3 Y129.764 E.02633
G1 X134.347 Y130.72 E.03153
G1 X134.304 Y131.514 E.02621
G1 X134.178 Y132.31 E.02654
G1 X133.973 Y133.075 E.0261
G1 X133.691 Y133.814 E.02607
G1 X133.291 Y134.604 E.02918
G1 X127.566 Y144.52 E.37724
G1 X127.113 Y145.22 E.02745
G1 X126.582 Y145.876 E.0278
G1 X126.031 Y146.427 E.02567
G1 X125.418 Y146.926 E.02607
G1 X124.697 Y147.395 E.02833
G1 X123.928 Y147.792 E.02851
G1 X123.155 Y148.09 E.02729
G1 X122.366 Y148.301 E.02692
G1 X121.571 Y148.425 E.0265
G1 X120.725 Y148.47 E.02791
G1 X109.255 Y148.469 E.3779
G1 X108.441 Y148.427 E.02683
G1 X107.646 Y148.303 E.02653
G1 X106.868 Y148.097 E.02652
G1 X106.116 Y147.812 E.02648
G1 X105.35 Y147.422 E.02832
G1 X104.589 Y146.931 E.02983
G1 X103.978 Y146.434 E.02596
G1 X103.426 Y145.884 E.02567
G1 X102.894 Y145.23 E.02778
G1 X102.433 Y144.52 E.02789
G1 X96.708 Y134.603 E.37726
G1 X96.329 Y133.861 E.02746
G1 X96.035 Y133.098 E.02693
G1 X95.822 Y132.309 E.02693
G1 X95.696 Y131.515 E.0265
G1 X95.653 Y130.694 E.02708
G1 X95.694 Y129.816 E.02895
G1 X95.817 Y129.023 E.02644
G1 X96.023 Y128.245 E.02652
G1 X96.308 Y127.493 E.02649
G1 X96.709 Y126.703 E.02918
G1 X102.434 Y116.787 E.37724
G1 X102.887 Y116.088 E.02746
G1 X103.4 Y115.451 E.02694
G1 X103.907 Y114.943 E.02362
G1 X104.202 Y115.238 F9000
G1 F1800
G1 X104.244 Y115.196 E.00194
G1 X104.834 Y114.715 E.02507
G1 X105.476 Y114.295 E.02529
G1 X106.239 Y113.899 E.02829
G1 X106.944 Y113.625 E.02495
G1 X107.703 Y113.42 E.0259
G1 X108.479 Y113.297 E.0259
G1 X109.289 Y113.255 E.02671
G1 X120.657 Y113.255 E.37454
G1 X121.51 Y113.296 E.02812
G1 X122.311 Y113.423 E.02672
G1 X123.021 Y113.614 E.02424
G1 X123.709 Y113.876 E.02424
G1 X124.406 Y114.227 E.0257
G1 X125.128 Y114.688 E.02824
G1 X125.757 Y115.197 E.02666
G1 X126.277 Y115.717 E.02423
G1 X126.741 Y116.288 E.02424
G1 X127.199 Y116.987 E.02752
G1 X132.924 Y126.901 E.37717
G1 X133.287 Y127.612 E.02631
G1 X133.563 Y128.322 E.0251
G1 X133.763 Y129.057 E.02508
G1 X133.884 Y129.8 E.02482
G1 X133.929 Y130.725 E.03049
G1 X133.888 Y131.476 E.0248
G1 X133.77 Y132.216 E.02468
G1 X133.577 Y132.94 E.02468
G1 X133.312 Y133.639 E.02463
G1 X132.923 Y134.409 E.02841
G1 X127.212 Y144.3 E.37629
G1 X126.778 Y144.969 E.02627
G1 X126.267 Y145.601 E.02679
G1 X125.746 Y146.121 E.02424
G1 X125.177 Y146.584 E.0242
G1 X124.492 Y147.031 E.02692
G1 X123.763 Y147.408 E.02706
G1 X123.032 Y147.69 E.02581
G1 X122.273 Y147.893 E.02589
G1 X121.521 Y148.01 E.02506
G1 X120.711 Y148.053 E.02673
G1 X109.262 Y148.052 E.37718
G1 X108.491 Y148.012 E.02545
G1 X107.738 Y147.895 E.0251
G1 X107.002 Y147.701 E.02508
G1 X106.292 Y147.432 E.02501
G1 X105.553 Y147.057 E.0273
G1 X104.829 Y146.589 E.02839
G1 X104.262 Y146.128 E.02408
G1 X103.741 Y145.609 E.02423
G1 X103.229 Y144.978 E.02677
G1 X102.787 Y144.299 E.02669
G1 X97.076 Y134.407 E.37633
G1 X96.713 Y133.696 E.02629
G1 X96.434 Y132.975 E.02548
G1 X96.232 Y132.228 E.02548
G1 X96.113 Y131.477 E.02505
G1 X96.071 Y130.699 E.02569
G1 X96.109 Y129.865 E.02751
G1 X96.225 Y129.115 E.02499
G1 X96.419 Y128.379 E.02508
G1 X96.688 Y127.668 E.02504
G1 X97.077 Y126.899 E.0284
G1 X102.788 Y117.008 E.37629
G1 X103.222 Y116.338 E.02629
G1 X103.707 Y115.735 E.0255
G1 X104.174 Y115.266 E.02181
G1 X104.47 Y115.56 F9000
G1 F1800
G1 X104.52 Y115.51 E.00231
G1 X105.075 Y115.056 E.02364
G1 X105.682 Y114.659 E.02389
G1 X106.405 Y114.283 E.02684
G1 X107.069 Y114.024 E.02348
G1 X107.784 Y113.83 E.02442
G1 X108.53 Y113.712 E.02487
G1 X109.303 Y113.672 E.02553
G1 X120.644 Y113.672 E.37364
G1 X121.461 Y113.712 E.02692
G1 X122.231 Y113.833 E.02569
G1 X122.899 Y114.013 E.0228
G1 X123.534 Y114.255 E.02241
G1 X124.204 Y114.593 E.02471
G1 X124.878 Y115.023 E.02634
G1 X125.482 Y115.512 E.0256
G1 X125.971 Y116.002 E.02279
G1 X126.4 Y116.529 E.02241
G1 X126.842 Y117.203 E.02652
G1 X132.556 Y127.097 E.37644
G1 X132.903 Y127.777 E.02515
G1 X133.164 Y128.447 E.02367
G1 X133.353 Y129.139 E.02365
G1 X133.467 Y129.837 E.02331
G1 X133.511 Y130.73 E.02945
G1 X133.473 Y131.426 E.02296
G1 X133.362 Y132.123 E.02327
G1 X133.181 Y132.806 E.02327
G1 X132.932 Y133.464 E.02319
G1 X132.554 Y134.213 E.02763
G1 X126.858 Y144.079 E.37534
G1 X126.444 Y144.718 E.02508
G1 X125.952 Y145.326 E.02577
G1 X125.471 Y145.806 E.02239
G1 X124.936 Y146.243 E.02277
G1 X124.287 Y146.666 E.02551
G1 X123.597 Y147.024 E.0256
G1 X122.896 Y147.295 E.02476
G1 X122.18 Y147.485 E.02442
G1 X121.472 Y147.595 E.02362
G1 X120.697 Y147.636 E.02557
G1 X109.27 Y147.635 E.37646
G1 X108.54 Y147.597 E.02408
G1 X107.83 Y147.487 E.02368
G1 X107.135 Y147.305 E.02365
G1 X106.467 Y147.053 E.02354
G1 X105.756 Y146.691 E.02628
G1 X105.07 Y146.246 E.02694
G1 X104.537 Y145.813 E.02263
G1 X104.055 Y145.334 E.02238
G1 X103.563 Y144.727 E.02574
G1 X103.142 Y144.078 E.02549
G1 X97.444 Y134.21 E.37541
G1 X97.097 Y133.531 E.02512
G1 X96.833 Y132.851 E.02404
G1 X96.643 Y132.147 E.02403
G1 X96.529 Y131.44 E.0236
G1 X96.489 Y130.703 E.0243
G1 X96.525 Y129.913 E.02607
G1 X96.633 Y129.207 E.02353
G1 X96.815 Y128.513 E.02364
G1 X97.068 Y127.843 E.02358
G1 X97.446 Y127.094 E.02762
G1 X103.142 Y117.228 E.37534
G1 X103.557 Y116.588 E.02512
G1 X104.014 Y116.019 E.02406
G1 X104.442 Y115.588 E.02
G1 X104.738 Y115.882 F9000
G1 F1800
G1 X104.796 Y115.824 E.00268
G1 X105.317 Y115.397 E.0222
G1 X105.888 Y115.023 E.02249
G1 X106.571 Y114.666 E.02539
G1 X107.193 Y114.423 E.022
G1 X107.878 Y114.237 E.02338
G1 X108.58 Y114.127 E.0234
G1 X109.317 Y114.089 E.02434
G1 X120.631 Y114.089 E.37275
G1 X121.411 Y114.127 E.02572
G1 X122.15 Y114.243 E.02465
G1 X122.764 Y114.409 E.02094
G1 X123.36 Y114.635 E.021
G1 X123.992 Y114.953 E.02331
G1 X124.628 Y115.359 E.02485
G1 X125.208 Y115.827 E.02455
G1 X125.656 Y116.277 E.02094
G1 X126.059 Y116.771 E.02101
G1 X126.485 Y117.419 E.02552
G1 X132.187 Y127.294 E.37571
G1 X132.519 Y127.942 E.024
G1 X132.765 Y128.572 E.02225
G1 X132.943 Y129.222 E.02221
G1 X133.051 Y129.874 E.02179
G1 X133.093 Y130.735 E.0284
G1 X133.056 Y131.388 E.02154
G1 X132.952 Y132.043 E.02186
G1 X132.785 Y132.672 E.02143
G1 X132.552 Y133.29 E.02175
G1 X132.185 Y134.018 E.02685
G1 X126.503 Y143.859 E.37438
G1 X126.109 Y144.467 E.02389
G1 X125.637 Y145.051 E.02475
G1 X125.186 Y145.5 E.02095
G1 X124.694 Y145.902 E.02093
G1 X124.082 Y146.302 E.0241
G1 X123.432 Y146.64 E.02414
G1 X122.773 Y146.895 E.02326
G1 X122.1 Y147.075 E.02294
G1 X121.422 Y147.18 E.02261
G1 X120.683 Y147.218 E.0244
G1 X109.278 Y147.217 E.37575
G1 X108.589 Y147.181 E.02272
G1 X107.921 Y147.079 E.02227
G1 X107.269 Y146.909 E.02221
G1 X106.642 Y146.673 E.02206
G1 X105.959 Y146.326 E.02525
G1 X105.31 Y145.904 E.02548
G1 X104.821 Y145.507 E.02077
G1 X104.37 Y145.059 E.02095
G1 X103.897 Y144.476 E.02472
G1 X103.496 Y143.857 E.02429
G1 X97.813 Y134.014 E.37448
G1 X97.481 Y133.366 E.02396
G1 X97.232 Y132.727 E.0226
G1 X97.053 Y132.066 E.02258
G1 X96.945 Y131.402 E.02216
G1 X96.907 Y130.708 E.0229
G1 X96.94 Y129.961 E.02464
G1 X97.041 Y129.298 E.02208
G1 X97.211 Y128.646 E.0222
G1 X97.448 Y128.017 E.02213
G1 X97.815 Y127.29 E.02684
G1 X103.496 Y117.449 E.37438
G1 X103.892 Y116.838 E.02397
G1 X104.322 Y116.302 E.02263
G1 X104.71 Y115.91 E.01819
G1 X105.006 Y116.204 F9000
G1 F1800
G1 X105.072 Y116.138 E.00307
G1 X105.559 Y115.738 E.02076
G1 X106.094 Y115.386 E.02109
G1 X106.738 Y115.05 E.02394
G1 X107.318 Y114.822 E.02052
G1 X107.959 Y114.648 E.02188
G1 X108.629 Y114.542 E.02237
G1 X109.331 Y114.506 E.02316
G1 X120.618 Y114.506 E.37185
G1 X121.362 Y114.542 E.02452
G1 X122.069 Y114.653 E.02361
G1 X122.641 Y114.808 E.01951
G1 X123.186 Y115.015 E.01919
G1 X123.78 Y115.314 E.02191
G1 X124.378 Y115.694 E.02336
G1 X124.933 Y116.142 E.02349
G1 X125.35 Y116.562 E.0195
G1 X125.718 Y117.013 E.0192
G1 X126.127 Y117.635 E.02451
G1 X131.819 Y127.49 E.37498
G1 X132.14 Y128.119 E.02327
G1 X132.37 Y128.709 E.02085
G1 X132.536 Y129.318 E.02078
G1 X132.636 Y129.926 E.0203
G1 X132.675 Y130.727 E.02644
G1 X132.641 Y131.337 E.02012
G1 X132.545 Y131.951 E.02046
G1 X132.389 Y132.539 E.02003
