; HEADER_BLOCK_START
; generated by OrcaSlicer 2.3.1 on 2026-02-23 at 16:16:55
; total layer number: 249
; filament_density: 1.3
; filament_diameter: 1.75
; max_z_height: 29.96
; HEADER_BLOCK_END

; external perimeters extrusion width = 0.42mm
; perimeters extrusion width = 0.45mm
; infill extrusion width = 0.45mm
; solid infill extrusion width = 0.42mm
; top infill extrusion width = 0.42mm
; first layer extrusion width = 0.46mm

; EXECUTABLE_BLOCK_START
M201 X2500 Y2500 Z500 E5000
M203 X250 Y250 Z5 E40
M204 P2500 R500 T2500 ; sets acceleration (P, T) and retract acceleration (R), mm/sec^2
M205 X10.00 Y10.00 Z0.40 E5.00 ; sets the jerk limits, mm/sec
;TYPE:Custom
M220 S100 ;Reset Feedrate 
M221 S100 ;Reset Flowrate 
 
M104 S220 ;Set final nozzle temp 
M190 S55 ;Set and wait for bed temp to stabilize 
G28 ;Home 
G92 E0 ;Reset Extruder 
G1 Z2.0 F3000 ;Move Z Axis up 
G1 X-2.1 Y20 Z0.28 F5000.0 ;Move to start position 
M109 S220 ;Wait for nozzle temp to stabilize 
G1 X-2.1 Y145.0 Z0.28 F1500.0 E15 ;Draw the first line 
G1 X-2.4 Y145.0 Z0.28 F5000.0 ;Move to side a little 
G1 X-2.4 Y20 Z0.28 F1500.0 E30 ;Draw the second line 
G92 E0  ;Reset Extruder 
G1 E-1.0000 F1800 ;Retract a bit 
G1 Z2.0 F3000 ;Move Z Axis up 
G1 E0.0000 F1800
G90
G21
M83 ; use relative distances for extrusion
; Filament gcode
M106 S0
;LAYER_CHANGE
;Z:0.2
;HEIGHT:0.2
;BEFORE_LAYER_CHANGE
;0.2
G92 E0

G1 E-1.2 F2400
;_SET_FAN_SPEED_CHANGING_LAYER
M204 P500
; printing object Benchmark70mm.STL id:15 copy 0
M204 T500
G1 X94.536 Y127.765 F9000
G1 Z.6
G1 Z.2
G1 E1.2 F1800
;TYPE:Brim
;WIDTH:0.46
G1 X95.311 Y127.24 E.03083
G1 X96.136 Y126.799 E.03083
G1 X97.004 Y126.445 E.03091
G1 X97.519 Y126.283 E.01777
G1 X98.433 Y126.071 E.03093
G1 X99.364 Y125.956 E.03089
G1 X100.004 Y125.933 E.0211
G1 X119.995 Y125.933 E.65863
G1 X120.935 Y125.982 E.03101
G1 X121.859 Y126.128 E.03083
G1 X122.763 Y126.369 E.03083
G1 X123.637 Y126.704 E.03084
G1 X124.425 Y127.1 E.02904
G1 X125.22 Y127.596 E.03088
G1 X125.958 Y128.171 E.03083
G1 X126.632 Y128.82 E.03083
G1 X127.235 Y129.536 E.03083
G1 X127.76 Y130.311 E.03083
G1 X128.201 Y131.136 E.03083
G1 X128.555 Y132.004 E.03091
G1 X128.717 Y132.519 E.01777
G1 X128.929 Y133.433 E.03093
G1 X129.044 Y134.364 E.03089
G1 X129.067 Y135.004 E.0211
G1 X129.067 Y154.995 E.65862
G1 X129.018 Y155.935 E.03101
G1 X128.872 Y156.859 E.03083
G1 X128.631 Y157.763 E.03083
G1 X128.296 Y158.638 E.03086
G1 X127.946 Y159.341 E.02587
G1 X127.404 Y160.22 E.03404
G1 X126.829 Y160.958 E.03081
G1 X126.18 Y161.632 E.03083
G1 X125.464 Y162.235 E.03083
G1 X124.689 Y162.76 E.03083
G1 X123.864 Y163.201 E.03083
G1 X122.995 Y163.555 E.03092
G1 X122.534 Y163.702 E.01596
G1 X121.566 Y163.929 E.03274
G1 X120.636 Y164.044 E.03088
G1 X119.996 Y164.067 E.0211
G1 X100.005 Y164.067 E.65862
G1 X99.065 Y164.018 E.03101
G1 X98.141 Y163.872 E.03083
G1 X97.237 Y163.631 E.03083
G1 X96.362 Y163.296 E.03086
G1 X95.659 Y162.946 E.02587
G1 X94.78 Y162.404 E.03404
G1 X94.042 Y161.829 E.03081
G1 X93.368 Y161.18 E.03083
G1 X92.765 Y160.464 E.03083
G1 X92.24 Y159.689 E.03083
G1 X91.799 Y158.864 E.03083
G1 X91.445 Y157.995 E.03092
G1 X91.298 Y157.534 E.01596
G1 X91.071 Y156.566 E.03274
G1 X90.956 Y155.636 E.03088
G1 X90.933 Y154.996 E.0211
G1 X90.933 Y135.005 E.65863
G1 X90.982 Y134.065 E.03101
G1 X91.128 Y133.141 E.03083
G1 X91.369 Y132.237 E.03083
G1 X91.704 Y131.362 E.03086
G1 X92.054 Y130.659 E.02587
G1 X92.596 Y129.78 E.03404
G1 X93.171 Y129.042 E.03081
G1 X93.82 Y128.368 E.03083
G1 X94.505 Y127.791 E.02951
G1 X94.774 Y128.11 F9000
G1 F1800
G1 X94.783 Y128.102 E.00038
G1 X95.521 Y127.601 E.02939
G1 X96.307 Y127.18 E.02939
G1 X97.141 Y126.839 E.02967
G1 X97.633 Y126.685 E.017
G1 X98.513 Y126.481 E.02974
G1 X99.391 Y126.372 E.02917
G1 X100.013 Y126.35 E.0205
G1 X119.987 Y126.35 E.65806
G1 X120.897 Y126.398 E.03004
G1 X121.779 Y126.538 E.02939
G1 X122.64 Y126.769 E.02939
G1 X123.463 Y127.084 E.02901
G1 X124.225 Y127.467 E.02811
G1 X124.975 Y127.935 E.02913
G1 X125.679 Y128.483 E.02939
G1 X126.322 Y129.101 E.02939
G1 X126.898 Y129.783 E.02939
G1 X127.406 Y130.532 E.02982
G1 X127.826 Y131.319 E.02939
G1 X128.161 Y132.141 E.02924
G1 X128.315 Y132.633 E.017
G1 X128.516 Y133.5 E.02931
G1 X128.628 Y134.391 E.0296
G1 X128.65 Y135.013 E.02051
G1 X128.65 Y154.98 E.65784
G1 X128.603 Y155.884 E.02983
G1 X128.462 Y156.779 E.02982
G1 X128.231 Y157.64 E.02939
G1 X127.916 Y158.464 E.02907
G1 X127.584 Y159.133 E.02459
G1 X127.057 Y159.987 E.03308
G1 X126.509 Y160.689 E.02933
G1 X125.889 Y161.331 E.02939
G1 X125.207 Y161.906 E.02939
G1 X124.468 Y162.406 E.02939
G1 X123.681 Y162.826 E.02939
G1 X122.858 Y163.161 E.02927
G1 X122.427 Y163.298 E.01489
G1 X121.499 Y163.516 E.03141
G1 X120.598 Y163.628 E.02994
G1 X119.987 Y163.65 E.02014
G1 X100.02 Y163.65 E.65784
G1 X99.116 Y163.603 E.02983
G1 X98.221 Y163.462 E.02982
G1 X97.36 Y163.231 E.02939
G1 X96.536 Y162.916 E.02907
G1 X95.867 Y162.584 E.02459
G1 X95.013 Y162.057 E.03308
G1 X94.311 Y161.509 E.02933
G1 X93.669 Y160.889 E.02939
G1 X93.094 Y160.207 E.02939
G1 X92.594 Y159.468 E.02939
G1 X92.174 Y158.681 E.02939
G1 X91.839 Y157.858 E.02927
G1 X91.702 Y157.427 E.01489
G1 X91.484 Y156.499 E.03141
G1 X91.372 Y155.598 E.02994
G1 X91.35 Y154.987 E.02014
G1 X91.35 Y135.02 E.65784
G1 X91.397 Y134.116 E.02982
G1 X91.538 Y133.221 E.02982
G1 X91.769 Y132.36 E.02939
G1 X92.084 Y131.536 E.02907
G1 X92.416 Y130.867 E.02459
G1 X92.943 Y130.013 E.03308
G1 X93.491 Y129.311 E.02933
G1 X94.111 Y128.669 E.02939
G1 X94.743 Y128.136 E.02726
G1 X95.012 Y128.454 F9000
G1 F1800
G1 X95.03 Y128.439 E.00077
G1 X95.732 Y127.962 E.02796
G1 X96.479 Y127.561 E.02796
G1 X97.278 Y127.234 E.02842
G1 X97.748 Y127.086 E.01623
G1 X98.592 Y126.892 E.02854
G1 X99.419 Y126.789 E.02746
G1 X100.023 Y126.767 E.01991
G1 X119.973 Y126.767 E.65726
G1 X120.86 Y126.815 E.02928
G1 X121.698 Y126.948 E.02796
G1 X122.518 Y127.169 E.02796
G1 X123.288 Y127.463 E.02718
G1 X124.025 Y127.834 E.02719
G1 X124.741 Y128.281 E.02781
G1 X125.401 Y128.795 E.02753
G1 X126.013 Y129.382 E.02796
G1 X126.561 Y130.03 E.02795
G1 X127.051 Y130.754 E.02881
G1 X127.45 Y131.503 E.02795
G1 X127.766 Y132.278 E.02758
G1 X127.914 Y132.748 E.01623
G1 X128.104 Y133.567 E.02769
G1 X128.211 Y134.419 E.02831
G1 X128.233 Y135.023 E.01991
G1 X128.233 Y154.966 E.65705
G1 X128.188 Y155.834 E.02864
G1 X128.054 Y156.685 E.02838
G1 X127.831 Y157.518 E.02839
G1 X127.535 Y158.291 E.02729
G1 X127.221 Y158.925 E.02331
G1 X126.709 Y159.754 E.0321
G1 X126.189 Y160.42 E.02785
G1 X125.599 Y161.03 E.02796
G1 X124.95 Y161.576 E.02796
G1 X124.246 Y162.051 E.02796
G1 X123.497 Y162.45 E.02796
G1 X122.72 Y162.767 E.02764
G1 X122.321 Y162.894 E.01382
G1 X121.432 Y163.104 E.03008
G1 X120.559 Y163.212 E.02899
G1 X119.977 Y163.233 E.01918
G1 X100.034 Y163.233 E.65706
G1 X99.166 Y163.188 E.02864
G1 X98.315 Y163.054 E.02838
G1 X97.482 Y162.831 E.02839
G1 X96.709 Y162.535 E.02729
G1 X96.075 Y162.221 E.02331
G1 X95.246 Y161.709 E.0321
G1 X94.58 Y161.189 E.02785
G1 X93.97 Y160.599 E.02796
G1 X93.424 Y159.95 E.02796
G1 X92.949 Y159.246 E.02796
G1 X92.55 Y158.497 E.02796
G1 X92.233 Y157.72 E.02764
G1 X92.106 Y157.321 E.01382
G1 X91.896 Y156.432 E.03008
G1 X91.788 Y155.559 E.02899
G1 X91.767 Y154.977 E.01918
G1 X91.767 Y135.034 E.65706
G1 X91.812 Y134.166 E.02864
G1 X91.946 Y133.315 E.02838
G1 X92.169 Y132.482 E.02839
G1 X92.465 Y131.709 E.02729
G1 X92.779 Y131.075 E.02331
G1 X93.291 Y130.246 E.0321
G1 X93.811 Y129.58 E.02785
G1 X94.391 Y128.978 E.02753
G1 X94.982 Y128.48 E.02545
G1 X95.251 Y128.8 F9000
G1 F1800
G1 X95.288 Y128.768 E.00159
G1 X95.943 Y128.323 E.0261
G1 X96.652 Y127.942 E.02652
G1 X97.415 Y127.629 E.02717
G1 X97.862 Y127.488 E.01545
G1 X98.671 Y127.302 E.02734
G1 X99.447 Y127.206 E.02577
G1 X100.033 Y127.184 E.01931
G1 X119.958 Y127.184 E.65645
G1 X120.822 Y127.231 E.02852
G1 X121.617 Y127.358 E.02652
G1 X122.395 Y127.568 E.02653
G1 X123.125 Y127.848 E.02578
G1 X123.826 Y128.201 E.02584
G1 X124.497 Y128.62 E.02606
G1 X125.122 Y129.106 E.02611
G1 X125.704 Y129.663 E.02652
G1 X126.223 Y130.277 E.0265
G1 X126.697 Y130.975 E.02779
G1 X127.069 Y131.674 E.02609
G1 X127.371 Y132.415 E.02635
G1 X127.512 Y132.862 E.01547
G1 X127.691 Y133.634 E.02609
G1 X127.794 Y134.448 E.02703
G1 X127.816 Y135.033 E.0193
G1 X127.816 Y154.959 E.65647
G1 X127.772 Y155.798 E.02767
G1 X127.644 Y156.605 E.02694
G1 X127.436 Y157.382 E.02651
G1 X127.155 Y158.118 E.02594
G1 X126.859 Y158.717 E.02202
G1 X126.362 Y159.521 E.03112
G1 X125.869 Y160.151 E.02636
G1 X125.309 Y160.729 E.02652
G1 X124.693 Y161.246 E.02652
G1 X124.025 Y161.696 E.02652
G1 X123.314 Y162.074 E.02653
G1 X122.583 Y162.372 E.02603
G1 X122.214 Y162.491 E.01275
G1 X121.365 Y162.691 E.02874
G1 X120.52 Y162.796 E.02805
G1 X119.967 Y162.816 E.01822
G1 X100.048 Y162.816 E.65628
G1 X99.215 Y162.773 E.02746
G1 X98.395 Y162.644 E.02737
G1 X97.605 Y162.432 E.02694
G1 X96.882 Y162.155 E.02552
G1 X96.283 Y161.859 E.02202
G1 X95.479 Y161.362 E.03112
G1 X94.849 Y160.869 E.02636
G1 X94.271 Y160.309 E.02652
G1 X93.754 Y159.693 E.02652
G1 X93.304 Y159.025 E.02652
G1 X92.926 Y158.314 E.02653
G1 X92.628 Y157.583 E.02603
G1 X92.509 Y157.214 E.01275
G1 X92.309 Y156.365 E.02874
G1 X92.204 Y155.52 E.02805
G1 X92.184 Y154.967 E.01822
G1 X92.184 Y135.048 E.65628
G1 X92.227 Y134.215 E.02746
G1 X92.356 Y133.395 E.02737
G1 X92.568 Y132.605 E.02694
G1 X92.845 Y131.882 E.02552
G1 X93.141 Y131.283 E.02202
G1 X93.638 Y130.479 E.03112
G1 X94.131 Y129.849 E.02636
G1 X94.682 Y129.279 E.02611
G1 X95.22 Y128.825 E.02321
G1 X95.489 Y129.145 F9000
G1 F1800
G1 X95.545 Y129.098 E.00243
G1 X96.165 Y128.677 E.02468
G1 X96.836 Y128.317 E.02509
G1 X97.562 Y128.02 E.02583
G1 X97.976 Y127.89 E.01431
G1 X98.737 Y127.715 E.02572
G1 X99.476 Y127.623 E.02451
G1 X100.043 Y127.601 E.01872
G1 X119.943 Y127.601 E.65564
G1 X120.784 Y127.647 E.02775
G1 X121.536 Y127.769 E.02508
G1 X122.271 Y127.968 E.0251
G1 X122.962 Y128.233 E.02437
G1 X123.626 Y128.568 E.0245
G1 X124.252 Y128.959 E.02433
G1 X124.844 Y129.419 E.02469
G1 X125.395 Y129.945 E.02509
G1 X125.886 Y130.525 E.02504
G1 X126.342 Y131.197 E.02676
G1 X126.693 Y131.857 E.02465
G1 X126.977 Y132.551 E.0247
G1 X127.111 Y132.977 E.0147
G1 X127.278 Y133.701 E.02448
G1 X127.377 Y134.476 E.02575
G1 X127.399 Y135.043 E.0187
G1 X127.399 Y154.951 E.65589
G1 X127.355 Y155.76 E.0267
G1 X127.237 Y156.512 E.02507
G1 X127.04 Y157.248 E.02509
G1 X126.775 Y157.945 E.0246
G1 X126.496 Y158.509 E.02072
G1 X126.015 Y159.287 E.03013
G1 X125.55 Y159.881 E.02486
G1 X125.02 Y160.428 E.02508
G1 X124.436 Y160.916 E.02508
G1 X123.804 Y161.341 E.02508
G1 X123.131 Y161.699 E.02511
G1 X122.444 Y161.978 E.02443
G1 X122.107 Y162.087 E.01168
G1 X121.298 Y162.278 E.0274
G1 X120.481 Y162.381 E.0271
G1 X119.958 Y162.399 E.01726
G1 X100.062 Y162.399 E.65551
G1 X99.265 Y162.358 E.02628
G1 X98.488 Y162.237 E.02591
G1 X97.728 Y162.032 E.02593
G1 X97.055 Y161.775 E.02376
G1 X96.491 Y161.496 E.02072
G1 X95.713 Y161.015 E.03013
G1 X95.119 Y160.55 E.02486
G1 X94.572 Y160.02 E.02508
G1 X94.084 Y159.436 E.02508
G1 X93.659 Y158.804 E.02508
G1 X93.301 Y158.131 E.02511
G1 X93.022 Y157.444 E.02443
G1 X92.913 Y157.107 E.01168
G1 X92.722 Y156.298 E.0274
G1 X92.619 Y155.481 E.0271
G1 X92.601 Y154.958 E.01726
G1 X92.601 Y135.062 E.65551
G1 X92.642 Y134.265 E.02628
G1 X92.763 Y133.488 E.02591
G1 X92.968 Y132.728 E.02593
G1 X93.225 Y132.055 E.02376
G1 X93.504 Y131.491 E.02072
G1 X93.985 Y130.713 E.03013
G1 X94.45 Y130.119 E.02487
G1 X94.972 Y129.58 E.02469
G1 X95.458 Y129.171 E.02096
G1 X95.727 Y129.491 F9000
G1 F1800
G1 X95.803 Y129.427 E.00326
G1 X96.387 Y129.031 E.02326
G1 X97.02 Y128.692 E.02366
G1 X97.709 Y128.411 E.02449
G1 X98.09 Y128.291 E.01318
G1 X98.804 Y128.128 E.02412
G1 X99.504 Y128.04 E.02325
G1 X100.054 Y128.018 E.01812
G1 X119.929 Y128.018 E.65481
G1 X120.746 Y128.064 E.02698
G1 X121.454 Y128.179 E.02363
G1 X122.148 Y128.367 E.02367
G1 X122.798 Y128.618 E.02297
G1 X123.426 Y128.935 E.02317
G1 X124.018 Y129.306 E.02303
G1 X124.567 Y129.731 E.02286
G1 X125.086 Y130.227 E.02366
G1 X125.549 Y130.772 E.02357
G1 X125.987 Y131.418 E.02572
G1 X126.318 Y132.04 E.0232
G1 X126.582 Y132.688 E.02306
G1 X126.709 Y133.092 E.01393
G1 X126.866 Y133.768 E.02289
G1 X126.96 Y134.505 E.02447
G1 X126.982 Y135.054 E.01809
G1 X126.981 Y154.943 E.65529
G1 X126.939 Y155.723 E.02573
G1 X126.826 Y156.432 E.02364
G1 X126.644 Y157.113 E.02324
G1 X126.394 Y157.773 E.02326
G1 X126.134 Y158.302 E.01941
G1 X125.669 Y159.054 E.02913
G1 X125.23 Y159.611 E.02336
G1 X124.73 Y160.126 E.02365
G1 X124.18 Y160.586 E.02364
G1 X123.584 Y160.986 E.02364
G1 X122.948 Y161.323 E.02369
G1 X122.306 Y161.584 E.02285
G1 X122 Y161.683 E.01062
G1 X121.23 Y161.866 E.02606
G1 X120.443 Y161.965 E.02615
G1 X119.948 Y161.982 E.01629
G1 X100.076 Y161.982 E.65473
G1 X99.315 Y161.943 E.02511
G1 X98.568 Y161.826 E.02489
G1 X97.851 Y161.633 E.02447
G1 X97.227 Y161.394 E.02201
G1 X96.698 Y161.134 E.01942
G1 X95.946 Y160.669 E.02913
G1 X95.389 Y160.23 E.02336
G1 X94.874 Y159.73 E.02365
G1 X94.414 Y159.18 E.02364
G1 X94.014 Y158.584 E.02364
G1 X93.677 Y157.948 E.02369
G1 X93.416 Y157.306 E.02285
G1 X93.317 Y157 E.01062
G1 X93.134 Y156.23 E.02606
G1 X93.035 Y155.443 E.02615
G1 X93.018 Y154.948 E.01629
G1 X93.018 Y135.076 E.65474
G1 X93.057 Y134.315 E.0251
G1 X93.174 Y133.568 E.02489
G1 X93.367 Y132.851 E.02447
G1 X93.606 Y132.227 E.02201
G1 X93.866 Y131.698 E.01942
G1 X94.331 Y130.946 E.02913
G1 X94.77 Y130.389 E.02337
G1 X95.261 Y129.881 E.02327
G1 X95.696 Y129.516 E.01871
G1 X95.964 Y129.837 F9000
G1 F1800
G1 X96.06 Y129.757 E.0041
G1 X96.609 Y129.386 E.02184
G1 X97.204 Y129.067 E.02224
G1 X97.855 Y128.802 E.02316
G1 X98.204 Y128.693 E.01204
G1 X98.871 Y128.54 E.02253
G1 X99.533 Y128.456 E.022
G1 X100.064 Y128.435 E.01752
G1 X119.914 Y128.435 E.65396
G1 X120.708 Y128.48 E.0262
G1 X121.372 Y128.588 E.02218
G1 X122.024 Y128.766 E.02224
G1 X122.634 Y129.002 E.02157
G1 X123.216 Y129.296 E.02146
G1 X123.774 Y129.645 E.02169
G1 X124.289 Y130.044 E.02146
G1 X124.778 Y130.509 E.02223
G1 X125.212 Y131.02 E.0221
G1 X125.633 Y131.64 E.02468
G1 X125.942 Y132.223 E.02176
G1 X126.187 Y132.825 E.02142
G1 X126.307 Y133.206 E.01316
G1 X126.456 Y133.848 E.02171
G1 X126.544 Y134.534 E.02278
G1 X126.565 Y135.064 E.01747
G1 X126.564 Y154.935 E.65468
G1 X126.523 Y155.685 E.02474
G1 X126.419 Y156.339 E.0218
G1 X126.249 Y156.979 E.02183
G1 X126.013 Y157.601 E.02193
G1 X125.771 Y158.094 E.01809
G1 X125.322 Y158.82 E.02812
G1 X124.911 Y159.341 E.02185
G1 X124.441 Y159.824 E.02221
G1 X123.924 Y160.256 E.02221
G1 X123.364 Y160.631 E.02221
G1 X122.766 Y160.947 E.02227
G1 X122.168 Y161.19 E.02129
G1 X121.892 Y161.28 E.00955
G1 X121.149 Y161.456 E.02515
G1 X120.404 Y161.549 E.02475
G1 X119.939 Y161.565 E.01532
G1 X100.083 Y161.565 E.65418
G1 X99.351 Y161.526 E.02415
G1 X98.662 Y161.419 E.02299
G1 X97.986 Y161.237 E.02304
G1 X97.399 Y161.013 E.0207
G1 X96.906 Y160.771 E.01811
G1 X96.18 Y160.322 E.02812
G1 X95.659 Y159.911 E.02185
G1 X95.176 Y159.441 E.02221
G1 X94.744 Y158.924 E.02221
G1 X94.369 Y158.364 E.02221
G1 X94.053 Y157.766 E.02227
G1 X93.81 Y157.168 E.02129
G1 X93.72 Y156.892 E.00955
G1 X93.544 Y156.149 E.02515
G1 X93.451 Y155.404 E.02475
G1 X93.435 Y154.939 E.01532
G1 X93.435 Y135.083 E.65418
G1 X93.474 Y134.351 E.02415
G1 X93.581 Y133.662 E.02299
G1 X93.763 Y132.986 E.02304
G1 X93.987 Y132.399 E.0207
G1 X94.229 Y131.906 E.01811
G1 X94.678 Y131.18 E.02812
G1 X95.089 Y130.659 E.02187
G1 X95.551 Y130.183 E.02184
G1 X95.934 Y129.862 E.01646
G1 X96.201 Y130.183 F9000
G1 F1800
G1 X96.316 Y130.087 E.00494
G1 X96.83 Y129.74 E.02042
G1 X97.388 Y129.443 E.02081
G1 X98.001 Y129.193 E.02182
G1 X98.318 Y129.095 E.01091
G1 X98.938 Y128.953 E.02095
G1 X99.562 Y128.873 E.02074
G1 X100.075 Y128.852 E.01691
G1 X119.898 Y128.853 E.65311
G1 X120.669 Y128.896 E.02542
G1 X121.29 Y128.998 E.02073
G1 X121.899 Y129.165 E.02082
G1 X122.47 Y129.386 E.02017
G1 X123.015 Y129.663 E.02014
G1 X123.53 Y129.984 E.01999
G1 X124.012 Y130.356 E.02006
G1 X124.469 Y130.791 E.0208
G1 X124.876 Y131.267 E.02061
G1 X125.278 Y131.861 E.02362
